img/helpful.svg

<svg width="65" height="69" fill="none" xmlns="http://www.w3.org/2000/svg"><path d="M60.03 19.665c.69-.69 1.38-1.38 1.725-2.07 2.415-3.105 2.07-4.485-.345-6.555-2.415-2.07-6.21 1.035-6.21 1.035l-.69.69c-3.795-3.45-8.625-6.21-14.145-7.59C38.295 2.07 35.19 0 31.74 0c-3.795 0-6.9 2.415-8.97 5.52-4.485 1.38-8.625 3.795-12.075 6.9-.69-.345-2.07-1.725-3.795-2.07-2.415-.345-4.83 1.38-5.175 3.795 0 1.38 1.38 3.45 3.105 5.52C1.725 24.495 0 30.015 0 36.225 0 53.82 14.49 68.31 32.43 68.31c6.21 0 12.42-1.725 17.25-4.83l-1.035-2.415c-4.485-11.385-3.45-18.63-3.105-22.08 1.035-3.795 4.83-8.97 6.9-11.73 1.38-1.725 3.45-3.45 5.52-5.52 2.76 4.14 4.14 8.97 4.14 14.49 0 7.935-3.45 15.18-8.625 20.7l2.07 1.725c5.865-5.865 9.315-13.8 9.315-22.425 0-6.21-1.725-11.73-4.83-16.56zM31.74 2.76c4.485 0 7.935 4.14 7.935 9.315s-3.45 9.315-7.935 9.315c-4.485 0-7.935-3.795-7.935-9.315s3.45-9.315 7.935-9.315zm0 21.39c5.865 0 10.695-5.52 10.695-12.075 0-1.38-.345-2.415-.69-3.795 4.14 1.38 7.59 3.45 10.695 6.21-2.76 2.415-6.9 5.52-8.97 6.9-3.105 2.415-8.28 4.83-12.42 4.83-4.14 0-6.21-1.725-9.315-3.105-2.76-1.38-7.245-6.555-9.315-8.625 2.76-2.415 5.865-4.14 8.97-5.52 0 1.035-.345 2.07-.345 3.105 0 6.9 4.83 12.075 10.695 12.075zM2.76 36.225c0-5.175 1.38-10.005 3.795-14.49L7.59 22.77s8.625 10.005 10.35 12.42c1.725 2.415-.345 4.14-1.725 10.35-1.035 4.83-1.035 11.385-1.035 14.49C7.59 54.51 2.76 45.885 2.76 36.225zm53.475-16.56c-1.38 1.38-6.21 5.52-10.35 12.075s-3.45 11.73-3.105 15.525c.345 3.795 1.38 7.245 1.725 8.625.345 1.035 1.725 4.83 2.07 5.865-4.14 2.07-8.97 3.45-13.8 3.45-5.52 0-10.35-1.38-14.835-3.795 0-11.73.69-13.455 1.035-15.18 0-1.725 1.035-5.175 2.07-7.935.69-2.415-.345-4.485-1.38-5.52C18.63 31.74 8.625 19.665 6.9 17.25c-2.07-2.415-2.415-3.45-.69-4.14 1.725-1.035 6.21 4.485 8.28 6.9 1.725 2.415 9.66 8.97 16.905 8.625 7.245-.345 12.42-4.14 14.49-5.52 1.725-1.38 10.695-8.625 12.075-9.66 1.38-1.035 3.105 0 2.76 1.035-.345 1.035-3.105 3.795-4.485 5.175z" fill="#292929"/></svg>

<svg width="65" height="69" viewBox="0 0 65 69" fill="none" xmlns="http://www.w3.org/2000/svg">
<path d="M60.03 19.665C60.72 18.975 61.41 18.285 61.755 17.595C64.17 14.49 63.825 13.11 61.41 11.04C58.995 8.97 55.2 12.075 55.2 12.075C55.2 12.075 54.855 12.42 54.51 12.765C50.715 9.315 45.885 6.555 40.365 5.175C38.295 2.07 35.19 0 31.74 0C27.945 0 24.84 2.415 22.77 5.52C18.285 6.9 14.145 9.315 10.695 12.42C10.005 12.075 8.625 10.695 6.9 10.35C4.485 10.005 2.07 11.73 1.725 14.145C1.725 15.525 3.105 17.595 4.83 19.665C1.725 24.495 0 30.015 0 36.225C0 53.82 14.49 68.31 32.43 68.31C38.64 68.31 44.85 66.585 49.68 63.48L48.645 61.065C44.16 49.68 45.195 42.435 45.54 38.985C46.575 35.19 50.37 30.015 52.44 27.255C53.82 25.53 55.89 23.805 57.96 21.735C60.72 25.875 62.1 30.705 62.1 36.225C62.1 44.16 58.65 51.405 53.475 56.925L55.545 58.65C61.41 52.785 64.86 44.85 64.86 36.225C64.86 30.015 63.135 24.495 60.03 19.665ZM31.74 2.76C36.225 2.76 39.675 6.9 39.675 12.075C39.675 17.25 36.225 21.39 31.74 21.39C27.255 21.39 23.805 17.595 23.805 12.075C23.805 6.555 27.255 2.76 31.74 2.76ZM31.74 24.15C37.605 24.15 42.435 18.63 42.435 12.075C42.435 10.695 42.09 9.66 41.745 8.28C45.885 9.66 49.335 11.73 52.44 14.49C49.68 16.905 45.54 20.01 43.47 21.39C40.365 23.805 35.19 26.22 31.05 26.22C26.91 26.22 24.84 24.495 21.735 23.115C18.975 21.735 14.49 16.56 12.42 14.49C15.18 12.075 18.285 10.35 21.39 8.97C21.39 10.005 21.045 11.04 21.045 12.075C21.045 18.975 25.875 24.15 31.74 24.15ZM2.76 36.225C2.76 31.05 4.14 26.22 6.555 21.735C7.245 22.425 7.59 22.77 7.59 22.77C7.59 22.77 16.215 32.775 17.94 35.19C19.665 37.605 17.595 39.33 16.215 45.54C15.18 50.37 15.18 56.925 15.18 60.03C7.59 54.51 2.76 45.885 2.76 36.225ZM56.235 19.665C54.855 21.045 50.025 25.185 45.885 31.74C41.745 38.295 42.435 43.47 42.78 47.265C43.125 51.06 44.16 54.51 44.505 55.89C44.85 56.925 46.23 60.72 46.575 61.755C42.435 63.825 37.605 65.205 32.775 65.205C27.255 65.205 22.425 63.825 17.94 61.41C17.94 49.68 18.63 47.955 18.975 46.23C18.975 44.505 20.01 41.055 21.045 38.295C21.735 35.88 20.7 33.81 19.665 32.775C18.63 31.74 8.625 19.665 6.9 17.25C4.83 14.835 4.485 13.8 6.21 13.11C7.935 12.075 12.42 17.595 14.49 20.01C16.215 22.425 24.15 28.98 31.395 28.635C38.64 28.29 43.815 24.495 45.885 23.115C47.61 21.735 56.58 14.49 57.96 13.455C59.34 12.42 61.065 13.455 60.72 14.49C60.375 15.525 57.615 18.285 56.235 19.665Z" fill="#292929"/>
</svg>
